static/img/kroki/59fc7f46a898bff98db310d762a52769.svg

<?xml version="1.0" encoding="us-ascii" standalone="no"?><svg xmlns="http://www.w3.org/2000/svg" xmlns:xlink="http://www.w3.org/1999/xlink" contentStyleType="text/css" height="1190px" preserveAspectRatio="none" style="width:347px;height:1190px;" version="1.1" viewBox="0 0 347 1190" width="347px" zoomAndPan="magnify"><defs/><g><!--class aws_q_apps_category--><g id="elem_aws_q_apps_category"><rect codeLine="23" fill="#3D176E" height="100.3828" id="aws_q_apps_category" rx="2.5" ry="2.5" style="stroke:#000D19;stroke-width:0.5;" width="222" x="62.5" y="1083.5"/><ellipse cx="77.5" cy="1103.3945" fill="#ADD1B2" rx="11" ry="11" style="stroke:#181818;stroke-width:1.0;"/><path d="M80.4688,1109.0352 Q79.8906,1109.332 79.25,1109.4727 Q78.6094,1109.6289 77.9063,1109.6289 Q75.4063,1109.6289 74.0781,1107.9883 Q72.7656,1106.332 72.7656,1103.207 Q72.7656,1100.082 74.0781,1098.4258 Q75.4063,1096.7695 77.9063,1096.7695 Q78.6094,1096.7695 79.25,1096.9258 Q79.9063,1097.082 80.4688,1097.3789 L80.4688,1100.0977 Q79.8438,1099.5195 79.25,1099.2539 Q78.6563,1098.9727 78.0313,1098.9727 Q76.6875,1098.9727 76,1100.0508 Q75.3125,1101.1133 75.3125,1103.207 Q75.3125,1105.3008 76,1106.3789 Q76.6875,1107.4414 78.0313,1107.4414 Q78.6563,1107.4414 79.25,1107.1758 Q79.8438,1106.8945 80.4688,1106.3164 L80.4688,1109.0352 Z " fill="#000000"/><text fill="#D9B8FF" font-family="Helvetica" font-size="17" lengthAdjust="spacing" textLength="180" x="96.5" y="1109.2798">aws_q_apps_category</text><line style="stroke:#000D19;stroke-width:0.5;" x1="63.5" x2="283.5" y1="1123.2891" y2="1123.2891"/><text fill="#D9B8FF" font-family="sans-serif" font-size="14" font-weight="bold" lengthAdjust="spacing" textLength="14" x="73.5" y="1145.2842">id</text><text fill="#D9B8FF" font-family="sans-serif" font-size="14" lengthAdjust="spacing" textLength="48" x="87.5" y="1145.2842">: string</text><text fill="#D9B8FF" font-family="sans-serif" font-size="14" font-weight="bold" lengthAdjust="spacing" textLength="30" x="73.5" y="1171.5811">title</text><text fill="#D9B8FF" font-family="sans-serif" font-size="14" lengthAdjust="spacing" textLength="48" x="103.5" y="1171.5811">: string</text></g><!--class aws_q_apps_library_item--><g id="elem_aws_q_apps_library_item"><rect codeLine="27" fill="#3D176E" height="389.6484" id="aws_q_apps_library_item" rx="2.5" ry="2.5" style="stroke:#000D19;stroke-width:0.5;" width="333" x="7" y="633.85"/><ellipse cx="59.25" cy="653.7445" fill="#ADD1B2" rx="11" ry="11" style="stroke:#181818;stroke-width:1.0;"/><path d="M62.2188,659.3852 Q61.6406,659.682 61,659.8227 Q60.3594,659.9789 59.6563,659.9789 Q57.1563,659.9789 55.8281,658.3383 Q54.5156,656.682 54.5156,653.557 Q54.5156,650.432 55.8281,648.7758 Q57.1563,647.1195 59.6563,647.1195 Q60.3594,647.1195 61,647.2758 Q61.6563,647.432 62.2188,647.7289 L62.2188,650.4477 Q61.5938,649.8695 61,649.6039 Q60.4063,649.3227 59.7813,649.3227 Q58.4375,649.3227 57.75,650.4008 Q57.0625,651.4633 57.0625,653.557 Q57.0625,655.6508 57.75,656.7289 Q58.4375,657.7914 59.7813,657.7914 Q60.4063,657.7914 61,657.5258 Q61.5938,657.2445 62.2188,656.6664 L62.2188,659.3852 Z " fill="#000000"/><text fill="#D9B8FF" font-family="Helvetica" font-size="17" lengthAdjust="spacing" textLength="210" x="84.75" y="659.6298">aws_q_apps_library_item</text><line style="stroke:#000D19;stroke-width:0.5;" x1="8" x2="339" y1="673.6391" y2="673.6391"/><text fill="#D9B8FF" font-family="sans-serif" font-size="14" font-weight="bold" lengthAdjust="spacing" textLength="50" x="18" y="695.6342">app_id</text><text fill="#D9B8FF" font-family="sans-serif" font-size="14" lengthAdjust="spacing" textLength="48" x="68" y="695.6342">: string</text><text fill="#D9B8FF" font-family="sans-serif" font-size="14" font-weight="bold" lengthAdjust="spacing" textLength="95" x="18" y="721.9311">app_version</text><text fill="#D9B8FF" font-family="sans-serif" font-size="14" lengthAdjust="spacing" textLength="44" x="113" y="721.9311">: int64</text><text fill="#D9B8FF" font-family="sans-serif" font-size="14" font-weight="bold" lengthAdjust="spacing" textLength="83" x="18" y="748.2279">created_at</text><text fill="#D9B8FF" font-family="sans-serif" font-size="14" lengthAdjust="spacing" textLength="70" x="101" y="748.2279">: datetime</text><text fill="#D9B8FF" font-family="sans-serif" font-size="14" font-weight="bold" lengthAdjust="spacing" textLength="87" x="18" y="774.5248">created_by</text><text fill="#D9B8FF" font-family="sans-serif" font-size="14" lengthAdjust="spacing" textLength="48" x="105" y="774.5248">: string</text><text fill="#D9B8FF" font-family="sans-serif" font-size="14" font-weight="bold" lengthAdjust="spacing" textLength="88" x="18" y="800.8217">instance_id</text><text fill="#D9B8FF" font-family="sans-serif" font-size="14" lengthAdjust="spacing" textLength="48" x="106" y="800.8217">: string</text><text fill="#D9B8FF" font-family="sans-serif" font-size="14" font-weight="bold" lengthAdjust="spacing" textLength="131" x="18" y="827.1186">is_rated_by_user</text><text fill="#D9B8FF" font-family="sans-serif" font-size="14" lengthAdjust="spacing" textLength="65" x="149" y="827.1186">: boolean</text><text fill="#D9B8FF" font-family="sans-serif" font-size="14" font-weight="bold" lengthAdjust="spacing" textLength="141" x="18" y="853.4154">library_categories</text><text fill="#D9B8FF" font-family="sans-serif" font-size="14" lengthAdjust="spacing" textLength="170" x="159" y="853.4154">: aws_q_apps_category[]</text><text fill="#D9B8FF" font-family="sans-serif" font-size="14" font-weight="bold" lengthAdjust="spacing" textLength="112" x="18" y="879.7123">library_item_id</text><text fill="#D9B8FF" font-family="sans-serif" font-size="14" lengthAdjust="spacing" textLength="48" x="130" y="879.7123">: string</text><text fill="#D9B8FF" font-family="sans-serif" font-size="14" font-weight="bold" lengthAdjust="spacing" textLength="98" x="18" y="906.0092">rating_count</text><text fill="#D9B8FF" font-family="sans-serif" font-size="14" lengthAdjust="spacing" textLength="44" x="116" y="906.0092">: int64</text><text fill="#D9B8FF" font-family="sans-serif" font-size="14" font-weight="bold" lengthAdjust="spacing" textLength="49" x="18" y="932.3061">status</text><text fill="#D9B8FF" font-family="sans-serif" font-size="14" lengthAdjust="spacing" textLength="48" x="67" y="932.3061">: string</text><text fill="#D9B8FF" font-family="sans-serif" font-size="14" font-weight="bold" lengthAdjust="spacing" textLength="87" x="18" y="958.6029">updated_at</text><text fill="#D9B8FF" font-family="sans-serif" font-size="14" lengthAdjust="spacing" textLength="70" x="105" y="958.6029">: datetime</text><text fill="#D9B8FF" font-family="sans-serif" font-size="14" font-weight="bold" lengthAdjust="spacing" textLength="91" x="18" y="984.8998">updated_by</text><text fill="#D9B8FF" font-family="sans-serif" font-size="14" lengthAdjust="spacing" textLength="48" x="109" y="984.8998">: string</text><text fill="#D9B8FF" font-family="sans-serif" font-size="14" font-weight="bold" lengthAdjust="spacing" textLength="88" x="18" y="1011.1967">user_count</text><text fill="#D9B8FF" font-family="sans-serif" font-size="14" lengthAdjust="spacing" textLength="44" x="106" y="1011.1967">: int64</text></g><!--class aws_resource--><g id="elem_aws_resource"><rect codeLine="42" fill="#3D176E" height="74.0859" id="aws_resource" rx="2.5" ry="2.5" style="stroke:#000D19;stroke-width:0.5;" width="155" x="96" y="438.76"/><ellipse cx="111" cy="458.6545" fill="#ADD1B2" rx="11" ry="11" style="stroke:#181818;stroke-width:1.0;"/><path d="M113.9688,464.2952 Q113.3906,464.592 112.75,464.7327 Q112.1094,464.8889 111.4063,464.8889 Q108.9063,464.8889 107.5781,463.2483 Q106.2656,461.592 106.2656,458.467 Q106.2656,455.342 107.5781,453.6858 Q108.9063,452.0295 111.4063,452.0295 Q112.1094,452.0295 112.75,452.1858 Q113.4063,452.342 113.9688,452.6389 L113.9688,455.3577 Q113.3438,454.7795 112.75,454.5139 Q112.1563,454.2327 111.5313,454.2327 Q110.1875,454.2327 109.5,455.3108 Q108.8125,456.3733 108.8125,458.467 Q108.8125,460.5608 109.5,461.6389 Q110.1875,462.7014 111.5313,462.7014 Q112.1563,462.7014 112.75,462.4358 Q113.3438,462.1545 113.9688,461.5764 L113.9688,464.2952 Z " fill="#000000"/><text fill="#D9B8FF" font-family="Helvetica" font-size="17" lengthAdjust="spacing" textLength="113" x="130" y="464.5398">aws_resource</text><line style="stroke:#000D19;stroke-width:0.5;" x1="97" x2="250" y1="478.5491" y2="478.5491"/><text fill="#D9B8FF" font-family="sans-serif" font-size="14" font-weight="bold" lengthAdjust="spacing" textLength="26" x="107" y="500.5442">arn</text><text fill="#D9B8FF" font-family="sans-serif" font-size="14" lengthAdjust="spacing" textLength="48" x="133" y="500.5442">: string</text></g><!--class resource--><g id="elem_resource"><rect codeLine="45" fill="#3D176E" height="310.7578" id="resource" rx="2.5" ry="2.5" style="stroke:#000D19;stroke-width:0.5;" width="227" x="60" y="7"/><ellipse cx="128.75" cy="26.8945" fill="#ADD1B2" rx="11" ry="11" style="stroke:#181818;stroke-width:1.0;"/><path d="M131.7188,32.5352 Q131.1406,32.832 130.5,32.9727 Q129.8594,33.1289 129.1563,33.1289 Q126.6563,33.1289 125.3281,31.4883 Q124.0156,29.832 124.0156,26.707 Q124.0156,23.582 125.3281,21.9258 Q126.6563,20.2695 129.1563,20.2695 Q129.8594,20.2695 130.5,20.4258 Q131.1563,20.582 131.7188,20.8789 L131.7188,23.5977 Q131.0938,23.0195 130.5,22.7539 Q129.9063,22.4727 129.2813,22.4727 Q127.9375,22.4727 127.25,23.5508 Q126.5625,24.6133 126.5625,26.707 Q126.5625,28.8008 127.25,29.8789 Q127.9375,30.9414 129.2813,30.9414 Q129.9063,30.9414 130.5,30.6758 Q131.0938,30.3945 131.7188,29.8164 L131.7188,32.5352 Z " fill="#000000"/><text fill="#D9B8FF" font-family="Helvetica" font-size="17" lengthAdjust="spacing" textLength="71" x="154.25" y="32.7798">resource</text><line style="stroke:#000D19;stroke-width:0.5;" x1="61" x2="286" y1="46.7891" y2="46.7891"/><text fill="#D9B8FF" font-family="sans-serif" font-size="14" font-weight="bold" lengthAdjust="spacing" textLength="29" x="71" y="68.7842">age</text><text fill="#D9B8FF" font-family="sans-serif" font-size="14" lengthAdjust="spacing" textLength="66" x="100" y="68.7842">: duration</text><text fill="#D9B8FF" font-family="sans-serif" font-size="14" font-weight="bold" lengthAdjust="spacing" textLength="43" x="71" y="95.0811">atime</text><text fill="#D9B8FF" font-family="sans-serif" font-size="14" lengthAdjust="spacing" textLength="70" x="114" y="95.0811">: datetime</text><text fill="#D9B8FF" font-family="sans-serif" font-size="14" font-weight="bold" lengthAdjust="spacing" textLength="43" x="71" y="121.3779">ctime</text><text fill="#D9B8FF" font-family="sans-serif" font-size="14" lengthAdjust="spacing" textLength="70" x="114" y="121.3779">: datetime</text><text fill="#D9B8FF" font-family="sans-serif" font-size="14" font-weight="bold" lengthAdjust="spacing" textLength="14" x="71" y="147.6748">id</text><text fill="#D9B8FF" font-family="sans-serif" font-size="14" lengthAdjust="spacing" textLength="48" x="85" y="147.6748">: string</text><text fill="#D9B8FF" font-family="sans-serif" font-size="14" font-weight="bold" lengthAdjust="spacing" textLength="33" x="71" y="173.9717">kind</text><text fill="#D9B8FF" font-family="sans-serif" font-size="14" lengthAdjust="spacing" textLength="48" x="104" y="173.9717">: string</text><text fill="#D9B8FF" font-family="sans-serif" font-size="14" font-weight="bold" lengthAdjust="spacing" textLength="90" x="71" y="200.2686">last_access</text><text fill="#D9B8FF" font-family="sans-serif" font-size="14" lengthAdjust="spacing" textLength="66" x="161" y="200.2686">: duration</text><text fill="#D9B8FF" font-family="sans-serif" font-size="14" font-weight="bold" lengthAdjust="spacing" textLength="90" x="71" y="226.5654">last_update</text><text fill="#D9B8FF" font-family="sans-serif" font-size="14" lengthAdjust="spacing" textLength="66" x="161" y="226.5654">: duration</text><text fill="#D9B8FF" font-family="sans-serif" font-size="14" font-weight="bold" lengthAdjust="spacing" textLength="48" x="71" y="252.8623">mtime</text><text fill="#D9B8FF" font-family="sans-serif" font-size="14" lengthAdjust="spacing" textLength="70" x="119" y="252.8623">: datetime</text><text fill="#D9B8FF" font-family="sans-serif" font-size="14" font-weight="bold" lengthAdjust="spacing" textLength="43" x="71" y="279.1592">name</text><text fill="#D9B8FF" font-family="sans-serif" font-size="14" lengthAdjust="spacing" textLength="48" x="114" y="279.1592">: string</text><text fill="#D9B8FF" font-family="sans-serif" font-size="14" font-weight="bold" lengthAdjust="spacing" textLength="34" x="71" y="305.4561">tags</text><text fill="#D9B8FF" font-family="sans-serif" font-size="14" lengthAdjust="spacing" textLength="171" x="105" y="305.4561">: dictionary[string, string]</text></g><!--link aws_q_apps_library_item to aws_q_apps_category--><g id="link_aws_q_apps_library_item_aws_q_apps_category"><path codeLine="57" d="M173.5,1023.72 C173.5,1045.46 173.5,1059.92 173.5,1077.12 " fill="none" id="aws_q_apps_library_item-to-aws_q_apps_category" style="stroke:#FFAF37;stroke-width:2.0;"/><polygon fill="#FFAF37" points="173.5,1083.12,177.5,1074.12,173.5,1078.12,169.5,1074.12,173.5,1083.12" style="stroke:#FFAF37;stroke-width:2.0;"/></g><!--reverse link aws_resource to aws_q_apps_library_item--><g id="link_aws_resource_aws_q_apps_library_item"><path codeLine="58" d="M173.5,531.03 C173.5,560.71 173.5,587.22 173.5,633.49 " fill="none" id="aws_resource-backto-aws_q_apps_library_item" style="stroke:#FFAF37;stroke-width:2.0;"/><polygon fill="none" points="173.5,513.03,167.5,531.03,179.5,531.03,173.5,513.03" style="stroke:#FFAF37;stroke-width:2.0;"/></g><!--reverse link resource to aws_resource--><g id="link_resource_aws_resource"><path codeLine="59" d="M173.5,336.18 C173.5,381.22 173.5,408.35 173.5,438.52 " fill="none" id="resource-backto-aws_resource" style="stroke:#FFAF37;stroke-width:2.0;"/><polygon fill="none" points="173.5,318.18,167.5,336.18,179.5,336.18,173.5,318.18" style="stroke:#FFAF37;stroke-width:2.0;"/></g><!--SRC=[XLJBRjim4BphAmJaPbI0dRHnN1G1KWD5UmcAfhSW45RaIYOiaUfo5SDz_7j9omueIavkqinePsP9UwCafjYql4yRR0eaczYjqYqGDEaTaTcjJMqelIXBAA-MCVd5Q7vJS0yDfb-nVaPM0cB5puqIMutMffS1zHd4jYBJQTcFPm9j7OMQ0zMw1cllc4aL7MCGHgwAcxACbV7GYokvM5xZI6P88Xqby_bSBbQnv4shLtk_A1xKRqmNuTBk3UCeviZYe7erfLS48KT5J_pPZDz1IgMhz4E0_UWpaKOQu0yRa6RdrINKDhInZ8I6zoskHwrmTIFBvQJuspbn8lpgKjZP_5SERMjp0OoLeNtw9vdDb9pDFhevvBAuLrPSOu3y6tzUguA0zhbYR0uZ79f7Oppqx7uPocYFAytNxnqi29stp84zAjqpgmO3ejWFnYXj6RJ0UBooEHtrUMUHF5aOKoDenvu27digj9wVMC3ZKw3sTM8VP-8USk6soc4FbuexEv1shPokTYAYQZvsF3XSDg4r7GdiDqnwuao6akfmRBBpcOrV0_W0yPudiAYpkrj3m7bn3aAu_vl8uS3q_IAccV3HqE3mha7LJrJ2V-OEuR7dtXqrJwxgkOkNPRTJHveCTlVfRvPbv-vkCY4xGSb_]--></g></svg>

<svg xmlns="http://www.w3.org/2000/svg" width="347" height="1190" viewBox="0 0 347 1190"><rect width="222" height="100.383" x="62.5" y="1083.5" fill="#3D176E" rx="2.5" ry="2.5" style="stroke:#000d19;stroke-width:.5"/><circle cx="77.5" cy="1103.395" r="11" fill="#ADD1B2" style="stroke:#181818;stroke-width:1"/><path d="M80.469 1109.035q-.578.297-1.219.438-.64.156-1.344.156-2.5 0-3.828-1.64-1.312-1.657-1.312-4.782t1.312-4.781q1.328-1.656 3.828-1.656.703 0 1.344.156.656.156 1.219.453v2.719q-.625-.578-1.219-.844-.594-.281-1.219-.281-1.344 0-2.031 1.078-.687 1.062-.687 3.156t.687 3.172q.688 1.062 2.031 1.062.625 0 1.219-.265.594-.281 1.219-.86z"/><text x="96.5" y="1109.28" fill="#D9B8FF" font-family="Helvetica" font-size="17" textLength="180">aws_q_apps_category</text><path d="M63.5 1123.289h220" style="stroke:#000d19;stroke-width:.5"/><text x="73.5" y="1145.284" fill="#D9B8FF" font-family="sans-serif" font-size="14" font-weight="bold" textLength="14">id</text><text x="87.5" y="1145.284" fill="#D9B8FF" font-family="sans-serif" font-size="14" textLength="48">: string</text><text x="73.5" y="1171.581" fill="#D9B8FF" font-family="sans-serif" font-size="14" font-weight="bold" textLength="30">title</text><text x="103.5" y="1171.581" fill="#D9B8FF" font-family="sans-serif" font-size="14" textLength="48">: string</text><rect width="333" height="389.648" x="7" y="633.85" fill="#3D176E" rx="2.5" ry="2.5" style="stroke:#000d19;stroke-width:.5"/><circle cx="59.25" cy="653.745" r="11" fill="#ADD1B2" style="stroke:#181818;stroke-width:1"/><path d="M62.219 659.385q-.578.297-1.219.438-.64.156-1.344.156-2.5 0-3.828-1.64-1.312-1.657-1.312-4.782t1.312-4.781q1.328-1.656 3.828-1.656.703 0 1.344.156.656.156 1.219.453v2.719q-.625-.578-1.219-.844-.594-.281-1.219-.281-1.343 0-2.031 1.078-.687 1.062-.687 3.156t.687 3.172q.688 1.062 2.031 1.062.625 0 1.219-.265.594-.281 1.219-.86z"/><text x="84.75" y="659.63" fill="#D9B8FF" font-family="Helvetica" font-size="17" textLength="210">aws_q_apps_library_item</text><path d="M8 673.639h331" style="stroke:#000d19;stroke-width:.5"/><text x="18" y="695.634" fill="#D9B8FF" font-family="sans-serif" font-size="14" font-weight="bold" textLength="50">app_id</text><text x="68" y="695.634" fill="#D9B8FF" font-family="sans-serif" font-size="14" textLength="48">: string</text><text x="18" y="721.931" fill="#D9B8FF" font-family="sans-serif" font-size="14" font-weight="bold" textLength="95">app_version</text><text x="113" y="721.931" fill="#D9B8FF" font-family="sans-serif" font-size="14" textLength="44">: int64</text><text x="18" y="748.228" fill="#D9B8FF" font-family="sans-serif" font-size="14" font-weight="bold" textLength="83">created_at</text><text x="101" y="748.228" fill="#D9B8FF" font-family="sans-serif" font-size="14" textLength="70">: datetime</text><text x="18" y="774.525" fill="#D9B8FF" font-family="sans-serif" font-size="14" font-weight="bold" textLength="87">created_by</text><text x="105" y="774.525" fill="#D9B8FF" font-family="sans-serif" font-size="14" textLength="48">: string</text><text x="18" y="800.822" fill="#D9B8FF" font-family="sans-serif" font-size="14" font-weight="bold" textLength="88">instance_id</text><text x="106" y="800.822" fill="#D9B8FF" font-family="sans-serif" font-size="14" textLength="48">: string</text><text x="18" y="827.119" fill="#D9B8FF" font-family="sans-serif" font-size="14" font-weight="bold" textLength="131">is_rated_by_user</text><text x="149" y="827.119" fill="#D9B8FF" font-family="sans-serif" font-size="14" textLength="65">: boolean</text><text x="18" y="853.415" fill="#D9B8FF" font-family="sans-serif" font-size="14" font-weight="bold" textLength="141">library_categories</text><text x="159" y="853.415" fill="#D9B8FF" font-family="sans-serif" font-size="14" textLength="170">: aws_q_apps_category[]</text><text x="18" y="879.712" fill="#D9B8FF" font-family="sans-serif" font-size="14" font-weight="bold" textLength="112">library_item_id</text><text x="130" y="879.712" fill="#D9B8FF" font-family="sans-serif" font-size="14" textLength="48">: string</text><text x="18" y="906.009" fill="#D9B8FF" font-family="sans-serif" font-size="14" font-weight="bold" textLength="98">rating_count</text><text x="116" y="906.009" fill="#D9B8FF" font-family="sans-serif" font-size="14" textLength="44">: int64</text><text x="18" y="932.306" fill="#D9B8FF" font-family="sans-serif" font-size="14" font-weight="bold" textLength="49">status</text><text x="67" y="932.306" fill="#D9B8FF" font-family="sans-serif" font-size="14" textLength="48">: string</text><text x="18" y="958.603" fill="#D9B8FF" font-family="sans-serif" font-size="14" font-weight="bold" textLength="87">updated_at</text><text x="105" y="958.603" fill="#D9B8FF" font-family="sans-serif" font-size="14" textLength="70">: datetime</text><text x="18" y="984.9" fill="#D9B8FF" font-family="sans-serif" font-size="14" font-weight="bold" textLength="91">updated_by</text><text x="109" y="984.9" fill="#D9B8FF" font-family="sans-serif" font-size="14" textLength="48">: string</text><text x="18" y="1011.197" fill="#D9B8FF" font-family="sans-serif" font-size="14" font-weight="bold" textLength="88">user_count</text><text x="106" y="1011.197" fill="#D9B8FF" font-family="sans-serif" font-size="14" textLength="44">: int64</text><rect width="155" height="74.086" x="96" y="438.76" fill="#3D176E" rx="2.5" ry="2.5" style="stroke:#000d19;stroke-width:.5"/><circle cx="111" cy="458.654" r="11" fill="#ADD1B2" style="stroke:#181818;stroke-width:1"/><path d="M113.969 464.295q-.578.297-1.219.438-.64.156-1.344.156-2.5 0-3.828-1.64-1.312-1.657-1.312-4.782t1.312-4.781q1.328-1.656 3.828-1.656.703 0 1.344.156.656.156 1.219.453v2.719q-.625-.579-1.219-.844-.594-.281-1.219-.281-1.344 0-2.031 1.078-.687 1.062-.687 3.156t.687 3.172q.688 1.062 2.031 1.062.625 0 1.219-.265.594-.281 1.219-.86z"/><text x="130" y="464.54" fill="#D9B8FF" font-family="Helvetica" font-size="17" textLength="113">aws_resource</text><path d="M97 478.549h153" style="stroke:#000d19;stroke-width:.5"/><text x="107" y="500.544" fill="#D9B8FF" font-family="sans-serif" font-size="14" font-weight="bold" textLength="26">arn</text><text x="133" y="500.544" fill="#D9B8FF" font-family="sans-serif" font-size="14" textLength="48">: string</text><rect width="227" height="310.758" x="60" y="7" fill="#3D176E" rx="2.5" ry="2.5" style="stroke:#000d19;stroke-width:.5"/><circle cx="128.75" cy="26.895" r="11" fill="#ADD1B2" style="stroke:#181818;stroke-width:1"/><path d="M131.719 32.535q-.578.297-1.219.438-.64.156-1.344.156-2.5 0-3.828-1.64-1.312-1.657-1.312-4.782t1.312-4.781q1.328-1.656 3.828-1.656.703 0 1.344.156.656.156 1.219.453v2.719q-.625-.578-1.219-.844-.594-.281-1.219-.281-1.344 0-2.031 1.078-.687 1.062-.687 3.156t.687 3.172q.688 1.062 2.031 1.062.625 0 1.219-.265.594-.281 1.219-.86z"/><text x="154.25" y="32.78" fill="#D9B8FF" font-family="Helvetica" font-size="17" textLength="71">resource</text><path d="M61 46.789h225" style="stroke:#000d19;stroke-width:.5"/><text x="71" y="68.784" fill="#D9B8FF" font-family="sans-serif" font-size="14" font-weight="bold" textLength="29">age</text><text x="100" y="68.784" fill="#D9B8FF" font-family="sans-serif" font-size="14" textLength="66">: duration</text><text x="71" y="95.081" fill="#D9B8FF" font-family="sans-serif" font-size="14" font-weight="bold" textLength="43">atime</text><text x="114" y="95.081" fill="#D9B8FF" font-family="sans-serif" font-size="14" textLength="70">: datetime</text><text x="71" y="121.378" fill="#D9B8FF" font-family="sans-serif" font-size="14" font-weight="bold" textLength="43">ctime</text><text x="114" y="121.378" fill="#D9B8FF" font-family="sans-serif" font-size="14" textLength="70">: datetime</text><text x="71" y="147.675" fill="#D9B8FF" font-family="sans-serif" font-size="14" font-weight="bold" textLength="14">id</text><text x="85" y="147.675" fill="#D9B8FF" font-family="sans-serif" font-size="14" textLength="48">: string</text><text x="71" y="173.972" fill="#D9B8FF" font-family="sans-serif" font-size="14" font-weight="bold" textLength="33">kind</text><text x="104" y="173.972" fill="#D9B8FF" font-family="sans-serif" font-size="14" textLength="48">: string</text><text x="71" y="200.269" fill="#D9B8FF" font-family="sans-serif" font-size="14" font-weight="bold" textLength="90">last_access</text><text x="161" y="200.269" fill="#D9B8FF" font-family="sans-serif" font-size="14" textLength="66">: duration</text><text x="71" y="226.565" fill="#D9B8FF" font-family="sans-serif" font-size="14" font-weight="bold" textLength="90">last_update</text><text x="161" y="226.565" fill="#D9B8FF" font-family="sans-serif" font-size="14" textLength="66">: duration</text><text x="71" y="252.862" fill="#D9B8FF" font-family="sans-serif" font-size="14" font-weight="bold" textLength="48">mtime</text><text x="119" y="252.862" fill="#D9B8FF" font-family="sans-serif" font-size="14" textLength="70">: datetime</text><text x="71" y="279.159" fill="#D9B8FF" font-family="sans-serif" font-size="14" font-weight="bold" textLength="43">name</text><text x="114" y="279.159" fill="#D9B8FF" font-family="sans-serif" font-size="14" textLength="48">: string</text><text x="71" y="305.456" fill="#D9B8FF" font-family="sans-serif" font-size="14" font-weight="bold" textLength="34">tags</text><text x="105" y="305.456" fill="#D9B8FF" font-family="sans-serif" font-size="14" textLength="171">: dictionary[string, string]</text><path fill="none" d="M173.5 1023.72v53.4" style="stroke:#ffaf37;stroke-width:2"/><path fill="#FFAF37" d="m173.5 1083.12 4-9-4 4-4-4z" style="stroke:#ffaf37;stroke-width:2"/><path fill="none" d="M173.5 531.03v102.46m0-120.46-6 18h12zm0-176.85v102.34m0-120.34-6 18h12z" style="stroke:#ffaf37;stroke-width:2"/></svg>
